src/actions/symbolic/document-import-symbolic.svg

<svg version="1.1" viewBox="0 0 16 16" xmlns="http://www.w3.org/2000/svg">
 <defs>
  <style id="current-color-scheme" type="text/css">.ColorScheme-Text {
        color:#363636;
      }</style>
 </defs>
 <path d="m4 1c-1.108 0-2 0.892-2 2v10c0 1.108 0.892 2 2 2h4.7617a4.5 4.5 0 0 1-0.49805-1h-4.2637c-0.554 0-1-0.446-1-1v-10c0-0.554 0.446-1 1-1h4v4 1h5v1.0312a4.5 4.5 0 0 1 1 0.23242v-2.2637l-5-5h-1-4zm5 1.4141 3.5859 3.5859h-3.5859v-3.5859z" color="#363636" fill="currentColor"/>
 <path d="m9.0001 12.5a3.5 3.5 0 0 1 3.5-3.5 3.5 3.5 0 0 1 3.5 3.5 3.5 3.5 0 0 1-3.5 3.5 3.5 3.5 0 0 1-3.5-3.5zm1.0859 0 2.5 2.5 0.70703-0.70703-1.293-1.293h3v-1h-3l1.293-1.293-0.70703-0.70703-2.5 2.5z" fill="#363636"/>
</svg>

<svg xmlns="http://www.w3.org/2000/svg" viewBox="0 0 16 16">
    <defs>
        <style id="current-color-scheme" type="text/css">
            .ColorScheme-Text{color:#050505;opacity:.7}
        </style>
    </defs>
    <path fill="currentColor" fill-opacity=".7" d="M4 1c-1.108 0-2 .892-2 2v10c0 1.108.892 2 2 2h4.762a4.5 4.5 0 0 1-.498-1H4c-.554 0-1-.446-1-1V3c0-.554.446-1 1-1h4v5h5v1.031a4.5 4.5 0 0 1 1 .233V6L9 1H4zm5 1.414L12.586 6H9V2.414z" color="#050505"/>
    <path fill="#050505" fill-opacity=".7" d="M9 12.5A3.5 3.5 0 0 1 12.5 9a3.5 3.5 0 0 1 3.5 3.5 3.5 3.5 0 0 1-3.5 3.5A3.5 3.5 0 0 1 9 12.5zm1.086 0 2.5 2.5.707-.707L12 13h3v-1h-3l1.293-1.293-.707-.707-2.5 2.5z"/>
</svg>
